web/ui/src/components/theme/button/svgs/search.svg

<svg height="16" viewBox="0 0 16 16" width="16" xmlns="http://www.w3.org/2000/svg"><g fill="none" fill-rule="evenodd"><path d="m0 0h16v16h-16z" fill="#000" opacity="0"/><path d="m14.8531216 14.1781152-2.3758292-2.5422443c.9629951-1.1597897 1.492604-2.60556145 1.492604-4.12748959 0-3.57045923-2.9054541-6.47591333-6.4769686-6.47591333-3.57042725 0-6.47588136 2.90494246-6.47588136 6.47591333 0 3.57097089 2.90543811 6.47588139 6.47642498 6.47588139.93554171-.0004317 1.83777799-.1957233 2.68119018-.5798469.2506301-.1140986.3612271-.4094983.2471284-.6596008-.1140986-.2510937-.4110173-.3621385-.65960077-.2470485-.713868.3247398-1.47717446.489684-2.26927743.4901477-3.02142347 0-5.47951689-2.4580135-5.47951689-5.47953287 0-3.02100775 2.4580934-5.47956486 5.47951689-5.47956486 3.0219991 0 5.4805402 2.45809341 5.4805402 5.47956486 0 1.42234764-.5424482 2.76989797-1.5268688 3.79469117-.1908146.1982496-.184339.5136518.0134469.7044504.0149179.0144382.0343607.0199225.0513252.0323781.0134469.0199065.0203542.0428029.0373187.0607428l2.5765891 2.7569947c.0976778.1051287.2307076.157877.3636574.157877.1220932 0 .2441705-.044306.3403453-.1344689.2007598-.1868653.2117124-.5021715.0238558-.7029314z" fill="#595959"/></g></svg>

<?xml version="1.0" encoding="UTF-8"?>
<svg width="16px" height="16px" viewBox="0 0 16 16" version="1.1" xmlns="http://www.w3.org/2000/svg" xmlns:xlink="http://www.w3.org/1999/xlink">
    <title>search</title>
    <g id="页面-1" stroke="none" stroke-width="1" fill="none" fill-rule="evenodd">
        <g id="系统设计规范" transform="translate(-641.000000, -5253.000000)">
            <g id="分组" transform="translate(641.000000, 5253.000000)">
                <rect id="矩形" fill="#000000" opacity="0" x="0" y="0" width="16" height="16"></rect>
                <path d="M14.8531216,14.1781152 L12.4772924,11.6358709 C13.4402875,10.4760812 13.9698964,9.03030945 13.9698964,7.50838131 C13.9698964,3.93792208 11.0644423,1.03246798 7.4929278,1.03246798 C3.92250055,1.03246798 1.01704644,3.93741044 1.01704644,7.50838131 C1.01704644,11.0793522 3.92248455,13.9842627 7.49347142,13.9842627 C8.42901313,13.983831 9.33124941,13.7885394 10.1746616,13.4044158 C10.4252917,13.2903172 10.5358887,12.9949175 10.42179,12.744815 C10.3076914,12.4937213 10.0107727,12.3826765 9.76218923,12.4977665 C9.04832123,12.8225063 8.28501477,12.9874505 7.4929118,12.9879142 C4.47148833,12.9879142 2.01339491,10.5299007 2.01339491,7.50838133 C2.01339491,4.48737358 4.47148831,2.02881647 7.4929118,2.02881647 C10.5149109,2.02881647 12.973452,4.48690988 12.973452,7.50838133 C12.973452,8.93072897 12.4310038,10.2782793 11.4465832,11.3030725 C11.2557686,11.5013221 11.2622442,11.8167243 11.4600301,12.0075229 C11.474948,12.0219611 11.4943908,12.0274454 11.5113553,12.039901 C11.5248022,12.0598075 11.5317095,12.0827039 11.548674,12.1006438 L14.1252631,14.8576385 C14.2229409,14.9627672 14.3559707,15.0155155 14.4889205,15.0155155 C14.6110137,15.0155155 14.733091,14.9712095 14.8292658,14.8810466 C15.0300256,14.6941813 15.0409782,14.3788751 14.8531216,14.1781152 L14.8531216,14.1781152 Z" id="路径" fill="#595959"></path>
            </g>
        </g>
    </g>
</svg>
